svg/power_apparent_ac.svg

<svg width="24" height="24" viewBox="0 0 24 24" xmlns="http://www.w3.org/2000/svg">
<path d="M15.9999 7.40001C15.0999 7.40001 14.2999 7.20001 13.4999 6.90001L9.5999 5.00001C8.1999 4.30001 5.8999 4.70001 4.8999 5.80001L3.7999 7.00001L2.3999 5.60001L3.4999 4.40001C5.0999 2.60001 8.2999 2.00001 10.4999 3.10001L14.4999 5.00001C15.8999 5.70001 18.1999 5.30001 19.1999 4.20001L20.1999 3.00001L21.6999 4.30001L20.5999 5.50001C19.4999 6.70001 17.7999 7.40001 15.9999 7.40001Z" />
<path d="M18.9 22.1L18.1 19.4H14L13.2 22.1H10.6L14.6 10.7H17.5L21.5 22.1H18.9ZM17.5 17.3L16 12.4L14.5 17.3H17.5Z" />
<path d="M10.6999 10.9H13.0999L9.29988 22H6.69988L2.99988 10.9H5.39988L8.09988 20L10.6999 10.9Z" />
</svg>

<svg width="24" height="24" viewBox="0 0 24 24" xmlns="http://www.w3.org/2000/svg"><path d="M16 7.4c-.9 0-1.7-.2-2.5-.5L9.6 5c-1.4-.7-3.7-.3-4.7.8L3.8 7 2.4 5.6l1.1-1.2c1.6-1.8 4.8-2.4 7-1.3l4 1.9c1.4.7 3.7.3 4.7-.8l1-1.2 1.5 1.3-1.1 1.2c-1.1 1.2-2.8 1.9-4.6 1.9zM18.9 22.1l-.8-2.7H14l-.8 2.7h-2.6l4-11.4h2.9l4 11.4h-2.6zm-1.4-4.8L16 12.4l-1.5 4.9h3zM10.7 10.9h2.4L9.3 22H6.7L3 10.9h2.4L8.1 20l2.6-9.1z"/></svg>
